src/main/webapp/scripts/pdfjs/v54530/web/images/toolbarButton-currentOutlineItem.svg

<svg fill="none" height="16" viewBox="0 0 16 16" width="16" xmlns="http://www.w3.org/2000/svg"><path d="m10.803 4.74998v1.27438c0 .36866-.4459.55357-.7063.29317l-2.21954-2.21953c-.1615-.16151-.1615-.42366 0-.58517l2.21954-2.21954c.2604-.26039.7069-.07607.7069.29259v1.6641h4.1964v1.5zm-2.803-3.5h-5v1.5h3.5zm-1.5 4h-3.5v1.5h5zm-3.5 8.00002h12v1.5h-12zm3-4.00002h9v1.50002h-9zm-4.5-4h-1.5v1.5h1.5zm-1.5 8.00002h1.5v1.5h-1.5zm1.5-12.00002h-1.5v1.5h1.5zm1.5 8h1.5v1.50002h-1.5z" fill="#000"/></svg>

<svg width="16" height="16" viewBox="0 0 16 16" fill="none" xmlns="http://www.w3.org/2000/svg">
<path d="M10.803 4.74998V6.02436C10.803 6.39302 10.3571 6.57793 10.0967 6.31753L7.87716 4.098C7.71566 3.93649 7.71566 3.67434 7.87716 3.51283L10.0967 1.29329C10.3571 1.0329 10.8036 1.21722 10.8036 1.58588V3.24998H15V4.74998H10.803ZM8 1.24998H3V2.74998H6.5L8 1.24998ZM6.5 5.24998H3V6.74998H8L6.5 5.24998ZM3 13.25H15V14.75H3V13.25ZM6 9.24998H15V10.75H6V9.24998ZM1.5 5.24998H0V6.74998H1.5V5.24998ZM0 13.25H1.5V14.75H0V13.25ZM1.5 1.24998H0V2.74998H1.5V1.24998ZM3 9.24998H4.5V10.75H3V9.24998Z" fill="black"/>
</svg>
